COLOR/mimes 16/16/text-x-script.svg

<svg height="16" viewBox="0 0 4.233125 4.233125" width="16" xmlns="http://www.w3.org/2000/svg" xmlns:xlink="http://www.w3.org/1999/xlink"><linearGradient id="a" gradientTransform="matrix(0 -.00953618 .00953591 0 -.942985 4.473643)" gradientUnits="userSpaceOnUse" x1="459.03448" x2="35.310345" y1="419.23337" y2="207.36522"><stop offset="0" stop-color="#f2f2f2"/><stop offset="1" stop-color="#f9f9f9"/></linearGradient><linearGradient id="b" gradientUnits="userSpaceOnUse" x1="328" x2="328" y1="237" y2="251"><stop offset="0" stop-color="#fff"/><stop offset=".125" stop-color="#fff" stop-opacity=".098039"/><stop offset=".92500001" stop-color="#fff" stop-opacity=".098039"/><stop offset="1" stop-color="#fff" stop-opacity=".498039"/></linearGradient><clipPath id="c"><path d="m325.09646 237c-2.80769 0-3.10979.28839-3.09603 3.10176v3.89824 3.89824c-.0138 2.81337.28834 3.10176 3.09603 3.10176h5.8075c2.8077 0 3.09604-.28835 3.09604-3.10176v-3.89824-3.89824c0-2.8134-.28835-3.10176-3.09604-3.10176z"/></clipPath><path d="m1.3483181.26457031c-.1902366 0-.3444308.003678-.48573252.0273883-.14130436.023732-.28264052.0730955-.39065661.18085764-.1080135.10775949-.1578347.24955065-.1813735.39116985-.023547.1416218-.026772.2964457-.025848.4872857v.7652908 1.0314114c-.0007938.1900038.00238.3445631.025848.4857352.023547.1416192.073357.2834104.1813735.3911699.10801609.1077621.24935223.1571389.39065659.1808576.14130174.023732.29549594.027388.48573254.027388h1.5367831c.1902366 0 .3440948-.00362.4852166-.027388.1411245-.0237584.2824767-.0735294.3901383-.1813736.1076616-.1078441.1571651-.249413.1808574-.3906539.0236949-.1412435.0273883-.2951308.0273883-.4857352v-1.0314114-.7668413c0-.1906044-.0037-.3444917-.027388-.4857352-.0236789-.14124086-.0731961-.28280979-.1808577-.39065394s-.2490138-.1576257-.3901383-.18137353c-.1411218-.0237505-.29498-.0273883-.4852166-.0273883z" opacity=".1"/><path d="m1.3485192.26457031c-.74283142 0-.82275813.0762994-.81911762.82063359v1.0313587 1.0313585c-.00365.7443342.076286.8206336.81911762.8206336h1.5364921c.742834 0 .8191202-.076289.8191202-.8206336v-1.0313585-1.0313587c0-.7443421-.076289-.82063359-.8191202-.82063359z" fill="none" opacity=".2" stroke="#000" stroke-width=".529141"/><path d="m1.3485192.26457031c-.74283142 0-.82275813.0762994-.81911762.82063359v1.0313587 1.0313585c-.00365.7443342.076286.8206336.81911762.8206336h1.5364921c.742834 0 .8191202-.076289.8191202-.8206336v-1.0313585-1.0313587c0-.7443421-.076289-.82063359-.8191202-.82063359z" fill="url(#a)"/><path d="m1.0584285.79371093v.13228516h1.8519923v-.13228516zm0 .52914067v.1322851h2.1165626v-.1322851z" fill="#5884f4"/><path d="m1.8521394 2.9102734v.1322852h1.3228517v-.1322852zm-.7937109.5291407v.1322851h1.3228515v-.1322851z" fill="#b3b3b3"/><path d="m1.8521394 1.8519922v.1322851h1.3228517v-.1322851z" fill="#c43ac4"/><path d="m1.0584285 1.8519922v.1322851h.5291405v-.1322851z" fill="#8c59d9"/><path d="m1.8521394 2.3811329v.1322851h.7937109v-.1322851z" fill="#76c22b"/><path d="m1.0584285 2.3811329v.1322851h.5291405v-.1322851zm0 .5291405v.1322852h.5291405v-.1322852z" fill="#f22c42"/><path d="m2.1167097.26457031v3.70398439h.7683915c.742834 0 .8190303-.076236.8190303-.8205807v-1.0314114-1.0314116c0-.74434211-.076199-.82058069-.8190303-.82058069z" fill="#fff" opacity=".2"/><path d="m.52928787 2.1165626v1.0314114c-.00365.7443342.076199.8205807.81903023.8205807h1.5367831c.742834 0 .8190303-.076236.8190303-.8205807v-1.0314114z" fill="#fff" opacity=".2"/><path clip-path="url(#c)" d="m325.09646 237c-2.80769 0-3.10979.28839-3.09603 3.10176v3.89824 3.89824c-.0138 2.81337.28834 3.10176 3.09603 3.10176h5.8075c2.8077 0 3.09604-.28835 3.09604-3.10176v-3.89824-3.89824c0-2.8134-.28835-3.10176-3.09604-3.10176z" fill="none" opacity=".4" stroke="url(#b)" stroke-width="2" transform="matrix(.26457031 0 0 .26457031 -84.662355 -62.438594)"/></svg>

<?xml version="1.0" encoding="UTF-8" standalone="no"?>
<svg
   xmlns:dc="http://purl.org/dc/elements/1.1/"
   xmlns:cc="http://creativecommons.org/ns#"
   xmlns:rdf="http://www.w3.org/1999/02/22-rdf-syntax-ns#"
   xmlns:svg="http://www.w3.org/2000/svg"
   xmlns="http://www.w3.org/2000/svg"
   xmlns:xlink="http://www.w3.org/1999/xlink"
   xmlns:sodipodi="http://sodipodi.sourceforge.net/DTD/sodipodi-0.dtd"
   xmlns:inkscape="http://www.inkscape.org/namespaces/inkscape"
   width="16"
   height="16"
   version="1.1"
   viewBox="0 0 4.233125 4.233125"
   id="svg81"
   sodipodi:docname="application-octet-stream.svg"
   inkscape:version="0.92.4 (5da689c313, 2019-01-14)">
  <metadata
     id="metadata85">
    <rdf:RDF>
      <cc:Work
         rdf:about="">
        <dc:format>image/svg+xml</dc:format>
        <dc:type
           rdf:resource="http://purl.org/dc/dcmitype/StillImage" />
        <dc:title></dc:title>
      </cc:Work>
    </rdf:RDF>
  </metadata>
  <sodipodi:namedview
     pagecolor="#ffffff"
     bordercolor="#666666"
     borderopacity="1"
     objecttolerance="10"
     gridtolerance="10"
     guidetolerance="10"
     inkscape:pageopacity="0"
     inkscape:pageshadow="2"
     inkscape:window-width="1225"
     inkscape:window-height="854"
     id="namedview83"
     showgrid="false"
     inkscape:zoom="41.75"
     inkscape:cx="4.7305389"
     inkscape:cy="8.9580839"
     inkscape:window-x="0"
     inkscape:window-y="27"
     inkscape:window-maximized="0"
     inkscape:current-layer="svg81" />
  <defs
     id="defs17">
    <linearGradient
       id="linearGradient4226"
       x1="529.65503"
       x2="-35.310001"
       y1="401.58401"
       y2="119.093"
       gradientTransform="matrix(0,-0.11988932,0.11988589,0,0.36277965,292.5483)"
       gradientUnits="userSpaceOnUse">
      <stop
         style="stop-color:#f2f2f2"
         offset="0"
         id="stop2" />
      <stop
         style="stop-color:#f9f9f9"
         offset="1"
         id="stop4" />
    </linearGradient>
    <linearGradient
       id="linearGradient4358"
       x1="88"
       x2="488"
       y1="88"
       y2="488"
       gradientUnits="userSpaceOnUse">
      <stop
         style="stop-color:#000000;stop-opacity:.58823532"
         offset="0"
         id="stop7" />
      <stop
         style="stop-color:#000000;stop-opacity:0"
         offset=".88"
         id="stop9" />
      <stop
         style="stop-color:#000000"
         offset="1"
         id="stop11" />
    </linearGradient>
    <filter
       id="filter4346"
       width="1.026"
       height="1.022"
       x="-0.0099999998"
       y="-0.0099999998"
       style="color-interpolation-filters:sRGB">
      <feGaussianBlur
         stdDeviation="2.12"
         id="feGaussianBlur14" />
    </filter>
    <clipPath
       clipPathUnits="userSpaceOnUse"
       id="clipPath983">
      <path
         sodipodi:nodetypes="scccssscsss"
         inkscape:connector-curvature="0"
         id="path985"
         d="m 325.09646,237 c -2.80769,0 -3.10979,0.28839 -3.09603,3.10176 V 244 v 3.89824 c -0.0138,2.81337 0.28834,3.10176 3.09603,3.10176 h 5.8075 C 333.71166,251 334,250.71165 334,247.89824 V 244 240.10176 C 334,237.28836 333.71165,237 330.90396,237 Z"
         style="color:#000000;display:inline;overflow:visible;visibility:visible;opacity:1;fill:#46a926;fill-opacity:1;fill-rule:nonzero;stroke:none;stroke-width:2;stroke-miterlimit:4;stroke-dasharray:none;stroke-opacity:1;marker:none;enable-background:accumulate" />
    </clipPath>
    <clipPath
       clipPathUnits="userSpaceOnUse"
       id="clipPath983-3">
      <path
         sodipodi:nodetypes="scccssscsss"
         inkscape:connector-curvature="0"
         id="path985-5"
         d="m 325.09646,237 c -2.80769,0 -3.10979,0.28839 -3.09603,3.10176 V 244 v 3.89824 c -0.0138,2.81337 0.28834,3.10176 3.09603,3.10176 h 5.8075 C 333.71166,251 334,250.71165 334,247.89824 V 244 240.10176 C 334,237.28836 333.71165,237 330.90396,237 Z"
         style="color:#000000;display:inline;overflow:visible;visibility:visible;opacity:1;fill:#46a926;fill-opacity:1;fill-rule:nonzero;stroke:none;stroke-width:2;stroke-miterlimit:4;stroke-dasharray:none;stroke-opacity:1;marker:none;enable-background:accumulate" />
    </clipPath>
    <linearGradient
       inkscape:collect="always"
       xlink:href="#linearGradient4338"
       id="linearGradient920-6"
       gradientUnits="userSpaceOnUse"
       gradientTransform="matrix(0,-0.00953618,0.00953591,0,-0.94298509,4.4736432)"
       x1="459.03448"
       y1="419.23337"
       x2="35.310345"
       y2="207.36522" />
    <linearGradient
       inkscape:collect="always"
       id="linearGradient4338">
      <stop
         style="stop-color:#f2f2f2;stop-opacity:1"
         offset="0"
         id="stop4340" />
      <stop
         style="stop-color:#f9f9f9;stop-opacity:1"
         offset="1"
         id="stop4342" />
    </linearGradient>
    <linearGradient
       inkscape:collect="always"
       xlink:href="#linearGradient927"
       id="linearGradient81"
       gradientUnits="userSpaceOnUse"
       x1="328"
       y1="237"
       x2="328"
       y2="251" />
    <linearGradient
       inkscape:collect="always"
       id="linearGradient927">
      <stop
         style="stop-color:#ffffff;stop-opacity:1;"
         offset="0"
         id="stop923" />
      <stop
         id="stop933"
         offset="0.125"
         style="stop-color:#ffffff;stop-opacity:0.09803922" />
      <stop
         id="stop931"
         offset="0.92500001"
         style="stop-color:#ffffff;stop-opacity:0.09803922" />
      <stop
         style="stop-color:#ffffff;stop-opacity:0.49803922"
         offset="1"
         id="stop925" />
    </linearGradient>
    <clipPath
       clipPathUnits="userSpaceOnUse"
       id="clipPath983-3-6">
      <path
         sodipodi:nodetypes="scccssscsss"
         inkscape:connector-curvature="0"
         id="path985-5-0"
         d="m 325.09646,237 c -2.80769,0 -3.10979,0.28839 -3.09603,3.10176 V 244 v 3.89824 c -0.0138,2.81337 0.28834,3.10176 3.09603,3.10176 h 5.8075 C 333.71166,251 334,250.71165 334,247.89824 V 244 240.10176 C 334,237.28836 333.71165,237 330.90396,237 Z"
         style="color:#000000;display:inline;overflow:visible;visibility:visible;opacity:1;fill:#46a926;fill-opacity:1;fill-rule:nonzero;stroke:none;stroke-width:2;stroke-miterlimit:4;stroke-dasharray:none;stroke-opacity:1;marker:none;enable-background:accumulate" />
    </clipPath>
  </defs>
  <path
     style="color:#000000;font-style:normal;font-variant:normal;font-weight:normal;font-stretch:normal;font-size:medium;line-height:normal;font-family:sans-serif;font-variant-ligatures:normal;font-variant-position:normal;font-variant-caps:normal;font-variant-numeric:normal;font-variant-alternates:normal;font-feature-settings:normal;text-indent:0;text-align:start;text-decoration:none;text-decoration-line:none;text-decoration-style:solid;text-decoration-color:#000000;letter-spacing:normal;word-spacing:normal;text-transform:none;writing-mode:lr-tb;direction:ltr;text-orientation:mixed;dominant-baseline:auto;baseline-shift:baseline;text-anchor:start;white-space:normal;shape-padding:0;clip-rule:nonzero;display:inline;overflow:visible;visibility:visible;opacity:0.1;isolation:auto;mix-blend-mode:normal;color-interpolation:sRGB;color-interpolation-filters:linearRGB;solid-color:#000000;solid-opacity:1;vector-effect:none;fill:#000000;fill-opacity:1;fill-rule:nonzero;stroke:none;stroke-width:0.52914065;stroke-linecap:butt;stroke-linejoin:miter;stroke-miterlimit:4;stroke-dasharray:none;stroke-dashoffset:0;stroke-opacity:1;marker:none;color-rendering:auto;image-rendering:auto;shape-rendering:auto;text-rendering:auto;enable-background:accumulate"
     d="m 1.3483181,0.26457031 c -0.1902366,0 -0.3444308,0.003678 -0.48573252,0.0273883 -0.14130436,0.023732 -0.28264052,0.0730955 -0.39065661,0.18085764 -0.1080135,0.10775949 -0.1578347,0.24955065 -0.1813735,0.39116985 -0.023547,0.1416218 -0.026772,0.2964457 -0.025848,0.4872857 V 2.1165626 3.147974 c -7.938e-4,0.1900038 0.00238,0.3445631 0.025848,0.4857352 0.023547,0.1416192 0.073357,0.2834104 0.1813735,0.3911699 0.10801609,0.1077621 0.24935223,0.1571389 0.39065659,0.1808576 0.14130174,0.023732 0.29549594,0.027388 0.48573254,0.027388 h 1.5367831 c 0.1902366,0 0.3440948,-0.00362 0.4852166,-0.027388 C 3.5114423,4.1819783 3.6527945,4.1322073 3.7604561,4.0243631 3.8681177,3.916519 3.9176212,3.7749501 3.9413135,3.6337092 3.9650084,3.4924657 3.9687018,3.3385784 3.9687018,3.147974 V 2.1165626 1.3497213 c 0,-0.1906044 -0.0037,-0.3444917 -0.027388,-0.4857352 C 3.9176349,0.72274524 3.8681177,0.58117631 3.7604561,0.47333216 3.6527945,0.36548801 3.5114423,0.31570646 3.3703178,0.29195863 3.229196,0.26820813 3.0753378,0.26457033 2.8851012,0.26457033 Z"
     id="path997-1"
     inkscape:connector-curvature="0"
     sodipodi:nodetypes="scscccccccsscscscscscss" />
  <path
     sodipodi:nodetypes="scccssscsss"
     inkscape:connector-curvature="0"
     id="path928-2"
     d="m 1.3485192,0.26457031 c -0.74283142,0 -0.82275813,0.0762994 -0.81911762,0.82063359 v 1.0313587 1.0313585 c -0.00365,0.7443342 0.076286,0.8206336 0.81911762,0.8206336 h 1.5364921 c 0.742834,0 0.8191202,-0.076289 0.8191202,-0.8206336 V 2.1165626 1.0852039 c 0,-0.7443421 -0.076289,-0.82063359 -0.8191202,-0.82063359 z"
     style="color:#000000;display:inline;overflow:visible;visibility:visible;opacity:0.2;fill:none;fill-opacity:1;fill-rule:nonzero;stroke:#000000;stroke-width:0.52914065;stroke-miterlimit:4;stroke-dasharray:none;stroke-opacity:1;marker:none;enable-background:accumulate" />
  <path
     style="color:#000000;display:inline;overflow:visible;visibility:visible;fill:url(#linearGradient920-6);fill-opacity:1;fill-rule:nonzero;stroke:none;stroke-width:0.26457033;marker:none;enable-background:accumulate"
     d="m 1.3485192,0.26457031 c -0.74283142,0 -0.82275813,0.0762994 -0.81911762,0.82063359 v 1.0313587 1.0313585 c -0.00365,0.7443342 0.076286,0.8206336 0.81911762,0.8206336 h 1.5364921 c 0.742834,0 0.8191202,-0.076289 0.8191202,-0.8206336 V 2.1165626 1.0852039 c 0,-0.7443421 -0.076289,-0.82063359 -0.8191202,-0.82063359 z"
     id="path918-7"
     inkscape:connector-curvature="0"
     sodipodi:nodetypes="scccssscsss" />
  <path
     style="display:inline;opacity:1;fill:#5884f4;fill-opacity:1;stroke:none;stroke-width:0.52914065;stroke-linecap:square;stroke-linejoin:round;stroke-miterlimit:4;stroke-dasharray:none;stroke-dashoffset:0;stroke-opacity:1;enable-background:new"
     d="M 1.0584285,0.79371093 V 0.92599609 H 2.9104208 V 0.79371093 Z m 0,0.52914067 V 1.4551367 H 3.1749911 V 1.3228516 Z"
     id="path1175"
     inkscape:connector-curvature="0"
     sodipodi:nodetypes="cccccccccc" />
  <path
     style="display:inline;opacity:1;fill:#b3b3b3;fill-opacity:1;stroke:none;stroke-width:0.52914065;stroke-linecap:square;stroke-linejoin:round;stroke-miterlimit:4;stroke-dasharray:none;stroke-dashoffset:0;stroke-opacity:1;enable-background:new"
     d="M 1.8521394,2.9102734 V 3.0425586 H 3.1749911 V 2.9102734 Z M 1.0584285,3.4394141 V 3.5716992 H 2.38128 V 3.4394141 Z"
     id="path1177"
     inkscape:connector-curvature="0"
     sodipodi:nodetypes="cccccccccc" />
  <path
     style="display:inline;opacity:1;fill:#c43ac4;fill-opacity:1;stroke:none;stroke-width:0.52914065;stroke-linecap:square;stroke-linejoin:round;stroke-miterlimit:4;stroke-dasharray:none;stroke-dashoffset:0;stroke-opacity:1;enable-background:new"
     d="M 1.8521394,1.8519922 V 1.9842773 H 3.1749911 V 1.8519922 Z"
     id="path1179"
     inkscape:connector-curvature="0"
     sodipodi:nodetypes="ccccc" />
  <path
     style="display:inline;opacity:1;fill:#8c59d9;fill-opacity:1;stroke:none;stroke-width:0.52914065;stroke-linecap:square;stroke-linejoin:round;stroke-miterlimit:4;stroke-dasharray:none;stroke-dashoffset:0;stroke-opacity:1;enable-background:new"
     d="M 1.0584285,1.8519922 V 1.9842773 H 1.587569 V 1.8519922 Z"
     id="path1181"
     inkscape:connector-curvature="0"
     sodipodi:nodetypes="ccccc" />
  <path
     style="display:inline;opacity:1;fill:#76c22b;fill-opacity:1;stroke:none;stroke-width:0.52914065;stroke-linecap:square;stroke-linejoin:round;stroke-miterlimit:4;stroke-dasharray:none;stroke-dashoffset:0;stroke-opacity:1;enable-background:new"
     d="M 1.8521394,2.3811329 V 2.513418 H 2.6458503 V 2.3811329 Z"
     id="path1183"
     inkscape:connector-curvature="0"
     sodipodi:nodetypes="ccccc" />
  <path
     style="display:inline;opacity:1;fill:#f22c42;fill-opacity:1;stroke:none;stroke-width:0.52914065;stroke-linecap:square;stroke-linejoin:round;stroke-miterlimit:4;stroke-dasharray:none;stroke-dashoffset:0;stroke-opacity:1;enable-background:new"
     d="M 1.0584285,2.3811329 V 2.513418 H 1.587569 V 2.3811329 Z m 0,0.5291405 V 3.0425586 H 1.587569 V 2.9102734 Z"
     id="path1185"
     inkscape:connector-curvature="0"
     sodipodi:nodetypes="cccccccccc" />
  <path
     style="color:#000000;display:inline;overflow:visible;visibility:visible;opacity:0.2;fill:#ffffff;fill-opacity:1;fill-rule:nonzero;stroke:none;stroke-width:0.26457033;marker:none;enable-background:accumulate"
     d="M 2.1167097,0.26457031 V 3.9685547 h 0.7683915 c 0.742834,0 0.8190303,-0.076236 0.8190303,-0.8205807 V 2.1165626 1.085151 c 0,-0.74434211 -0.076199,-0.82058069 -0.8190303,-0.82058069 z"
     id="path1009-0"
     inkscape:connector-curvature="0" />
  <path
     style="color:#000000;display:inline;overflow:visible;visibility:visible;opacity:0.2;fill:#ffffff;fill-opacity:1;fill-rule:nonzero;stroke:none;stroke-width:0.26457033;marker:none;enable-background:accumulate"
     d="M 0.52928787,2.1165626 V 3.147974 c -0.00365,0.7443342 0.076199,0.8205807 0.81903023,0.8205807 h 1.5367831 c 0.742834,0 0.8190303,-0.076236 0.8190303,-0.8205807 V 2.1165626 Z"
     id="path1016-9"
     inkscape:connector-curvature="0" />
  <path
     transform="matrix(0.26457031,0,0,0.26457031,-84.662355,-62.438594)"
     style="color:#000000;display:inline;overflow:visible;visibility:visible;opacity:0.4;fill:none;fill-opacity:1;fill-rule:nonzero;stroke:url(#linearGradient81);stroke-width:2;stroke-miterlimit:4;stroke-dasharray:none;stroke-opacity:1;marker:none;enable-background:accumulate"
     d="m 325.09646,237 c -2.80769,0 -3.10979,0.28839 -3.09603,3.10176 V 244 v 3.89824 c -0.0138,2.81337 0.28834,3.10176 3.09603,3.10176 h 5.8075 C 333.71166,251 334,250.71165 334,247.89824 V 244 240.10176 C 334,237.28836 333.71165,237 330.90396,237 Z"
     id="path937-3"
     inkscape:connector-curvature="0"
     sodipodi:nodetypes="scccssscsss"
     clip-path="url(#clipPath983-3-6)" />
</svg>
